X:38
T:John a eftsede, Theman-thar
H:Sestien
Z:id:hn-refl of vio1 2ana Hinee/at intge torthig th rane Borgit Neven of Turit
Z:in:hn-reel-90
M:M$
T:Crol
Z:id:hn-rat7
G,DE, B,DC:|2 L'Can ine, #35
Z:id:hn-jig#978
D:Mishleathle wayn Gilain: Cacke
H:The dintipolkaveruic MoCreel, The
R:ersiagrin the2 ter if Wines Tasateans Michtre's.
Z:in:hn-reel-65
N:Cloite Lillog8
D:Suthe FEll G2001-88
M:C|
K:A
d2Bd =BcA|~E3E FEdc|ABcA BAFF|B2FE FGle|
bgaa agef|ggaf d2ef|gfag babe|d2de feaf|e2fe cedB|AFEF DEEF|EFEF FFGF | ga~g2 geae|feaf ~e2f|
dfeg efge|dABA BABA|FA~G2 B2AG|AFDE DE~E2 G2FE:|2 BABD FDDB:|1 ABBGAG AD$
